Newaita/actions/24/office-chart-line.svg

<svg height="24" viewBox="0 0 24 24" width="24" xmlns="http://www.w3.org/2000/svg"><g fill="#424242"><path d="m3.96875 21.523438v-18.855469c0-.273438-.222656-.496094-.496094-.496094-.273437 0-.496094.222656-.496094.496094v18.855469c0 .273437.222657.496093.496094.496093.273438 0 .496094-.222656.496094-.496093zm0 0"/><path d="m2.480469 21.027344h18.855469c.273437 0 .496093-.199219.496093-.441406v-.113282c0-.242187-.222656-.441406-.496093-.441406h-18.855469c-.273438 0-.496094.199219-.496094.441406v.113282c0 .242187.222656.441406.496094.441406zm0 0"/><path d="m19.828125 4.152344c-.257813.007812-.5.113281-.679687.296875l-3.621094 3.621093-6.457032-.921874c-.28125-.039063-.566406.042968-.78125.226562l-3.472656 2.976562c-.273437.230469-.40625.585938-.339844.9375.0625.351563.3125.636719.648438.753907.335938.117187.707031.042969.976562-.191407l3.132813-2.683593 6.503906.929687c.304688.042969.617188-.0625.835938-.28125l3.96875-3.96875c.292969-.285156.382812-.71875.222656-1.09375s-.53125-.613281-.9375-.601562zm0 0"/><path d="m5.46875 10.105469c-.417969-.007813-.800781.25-.945312.640625-.148438.394531-.03125.835937.292968 1.105468l3.472656 2.976563c.214844.1875.5.269531.78125.230469l6.457032-.925782 3.621094 3.621094c.246093.253906.613281.355469.957031.265625.34375-.089843.613281-.359375.703125-.703125.09375-.34375-.007813-.710937-.265625-.957031l-3.96875-3.96875c-.21875-.222656-.53125-.324219-.835938-.28125l-6.503906.929687-3.132813-2.6875c-.175781-.152343-.398437-.238281-.632812-.246093zm0 0"/></g></svg>

<?xml version="1.0" encoding="UTF-8"?>
<svg xmlns="http://www.w3.org/2000/svg" xmlns:xlink="http://www.w3.org/1999/xlink" width="24px" height="24px" viewBox="0 0 24 24" version="1.1">
<g id="surface1">
<path style=" stroke:none;fill-rule:nonzero;fill:rgb(25.882354%,25.882354%,25.882354%);fill-opacity:1;" d="M 3.96875 21.523438 L 3.96875 2.667969 C 3.96875 2.394531 3.746094 2.171875 3.472656 2.171875 C 3.199219 2.171875 2.976562 2.394531 2.976562 2.667969 L 2.976562 21.523438 C 2.976562 21.796875 3.199219 22.019531 3.472656 22.019531 C 3.746094 22.019531 3.96875 21.796875 3.96875 21.523438 Z M 3.96875 21.523438 "/>
<path style=" stroke:none;fill-rule:nonzero;fill:rgb(25.882354%,25.882354%,25.882354%);fill-opacity:1;" d="M 2.480469 21.027344 L 21.335938 21.027344 C 21.609375 21.027344 21.832031 20.828125 21.832031 20.585938 L 21.832031 20.472656 C 21.832031 20.230469 21.609375 20.03125 21.335938 20.03125 L 2.480469 20.03125 C 2.207031 20.03125 1.984375 20.230469 1.984375 20.472656 L 1.984375 20.585938 C 1.984375 20.828125 2.207031 21.027344 2.480469 21.027344 Z M 2.480469 21.027344 "/>
<path style=" stroke:none;fill-rule:nonzero;fill:rgb(25.882354%,25.882354%,25.882354%);fill-opacity:1;" d="M 19.828125 4.152344 C 19.570312 4.160156 19.328125 4.265625 19.148438 4.449219 L 15.527344 8.070312 L 9.070312 7.148438 C 8.789062 7.109375 8.503906 7.191406 8.289062 7.375 L 4.816406 10.351562 C 4.542969 10.582031 4.410156 10.9375 4.476562 11.289062 C 4.539062 11.640625 4.789062 11.925781 5.125 12.042969 C 5.460938 12.160156 5.832031 12.085938 6.101562 11.851562 L 9.234375 9.167969 L 15.738281 10.097656 C 16.042969 10.140625 16.355469 10.035156 16.574219 9.816406 L 20.542969 5.847656 C 20.835938 5.5625 20.925781 5.128906 20.765625 4.753906 C 20.605469 4.378906 20.234375 4.140625 19.828125 4.152344 Z M 19.828125 4.152344 "/>
<path style=" stroke:none;fill-rule:nonzero;fill:rgb(25.882354%,25.882354%,25.882354%);fill-opacity:1;" d="M 5.46875 10.105469 C 5.050781 10.097656 4.667969 10.355469 4.523438 10.746094 C 4.375 11.140625 4.492188 11.582031 4.816406 11.851562 L 8.289062 14.828125 C 8.503906 15.015625 8.789062 15.097656 9.070312 15.058594 L 15.527344 14.132812 L 19.148438 17.753906 C 19.394531 18.007812 19.761719 18.109375 20.105469 18.019531 C 20.449219 17.929688 20.71875 17.660156 20.808594 17.316406 C 20.902344 16.972656 20.800781 16.605469 20.542969 16.359375 L 16.574219 12.390625 C 16.355469 12.167969 16.042969 12.066406 15.738281 12.109375 L 9.234375 13.039062 L 6.101562 10.351562 C 5.925781 10.199219 5.703125 10.113281 5.46875 10.105469 Z M 5.46875 10.105469 "/>
</g>
</svg>
